icons/svgs/bus-outline.svg

<svg width="24" height="24" viewBox="0 0 24 24" fill="none" xmlns="http://www.w3.org/2000/svg">
<path d="M15.4297 5.75H19.2578C18.6328 5.08594 16.8359 3.875 12.5 3.875C8.47656 3.875 6.44531 5.08594 5.74219 5.75H9.53125C9.72656 5.39844 10.1562 5.125 10.625 5.125H14.375C14.8047 5.125 15.2344 5.39844 15.4297 5.75ZM19.375 7.625H13.4375V10.75H19.375V7.625ZM5.625 7.625V10.75H11.5625V7.625H5.625ZM5.625 12.625V16.6875C5.625 17.2344 6.01562 17.625 6.5625 17.625H15.4688H18.4375C18.9453 17.625 19.375 17.2344 19.375 16.6875V12.625H5.625ZM4.14062 4.73438C5.11719 3.52344 7.77344 2 12.5 2C17.5 2 19.9219 3.52344 20.8594 4.77344C21.1328 5.16406 21.25 5.59375 21.25 5.94531V7C21.9141 7 22.5 7.58594 22.5 8.25V10.75C22.5 11.4531 21.9141 12 21.25 12V16.6875C21.25 17.6641 20.7422 18.5234 20 19.0312V21.0625C20 21.6094 19.5703 22 19.0625 22C18.5156 22 18.125 21.6094 18.125 21.0625V19.5H15.4688H6.875V21.0625C6.875 21.6094 6.44531 22 5.9375 22C5.39062 22 5 21.6094 5 21.0625V19.0312C4.21875 18.5234 3.75 17.6641 3.75 16.6875V12C3.04688 12 2.5 11.4531 2.5 10.75V8.25C2.5 7.58594 3.04688 7 3.75 7V5.94531C3.75 5.59375 3.82812 5.125 4.14062 4.73438ZM8.125 13.875C8.78906 13.875 9.375 14.4609 9.375 15.125C9.375 15.8281 8.78906 16.375 8.125 16.375C7.42188 16.375 6.875 15.8281 6.875 15.125C6.875 14.4609 7.42188 13.875 8.125 13.875ZM16.875 13.875C17.5391 13.875 18.125 14.4609 18.125 15.125C18.125 15.8281 17.5391 16.375 16.875 16.375C16.1719 16.375 15.625 15.8281 15.625 15.125C15.625 14.4609 16.1719 13.875 16.875 13.875Z" fill="black"/>
</svg>

<svg xmlns="http://www.w3.org/2000/svg" width="24" height="24" fill="currentColor" class="icon-bus-outline" viewBox="0 0 24 24">
  <mask id="a" width="21" height="20" x="2" y="2" maskUnits="userSpaceOnUse" style="mask-type:alpha">
    <path d="M15.43 5.75h3.828c-.625-.664-2.422-1.875-6.758-1.875-4.023 0-6.055 1.21-6.758 1.875h3.79a1.28 1.28 0 0 1 1.093-.625h3.75c.43 0 .86.273 1.055.625m3.945 1.875h-5.937v3.125h5.937zm-13.75 0v3.125h5.938V7.625zm0 5v4.063c0 .546.39.937.938.937h11.875c.507 0 .937-.39.937-.937v-4.063zm-1.484-7.89C5.117 3.522 7.773 2 12.5 2c5 0 7.422 1.523 8.36 2.773.273.391.39.82.39 1.172V7c.664 0 1.25.586 1.25 1.25v2.5c0 .703-.586 1.25-1.25 1.25v4.688A2.85 2.85 0 0 1 20 19.03v2.032c0 .546-.43.937-.937.937-.547 0-.938-.39-.938-.937V19.5H6.875v1.563c0 .546-.43.937-.937.937C5.39 22 5 21.61 5 21.063V19.03c-.781-.508-1.25-1.367-1.25-2.343V12c-.703 0-1.25-.547-1.25-1.25v-2.5C2.5 7.586 3.047 7 3.75 7V5.945c0-.351.078-.82.39-1.21m3.984 9.14c.664 0 1.25.586 1.25 1.25 0 .703-.586 1.25-1.25 1.25-.703 0-1.25-.547-1.25-1.25 0-.664.547-1.25 1.25-1.25m8.75 0c.664 0 1.25.586 1.25 1.25 0 .703-.586 1.25-1.25 1.25-.703 0-1.25-.547-1.25-1.25 0-.664.547-1.25 1.25-1.25"/>
  </mask>
  <g mask="url(#a)">
    <path d="M0 0h24v24H0z"/>
  </g>
</svg>
